icons/netease-cloud-music-fill.svg

<svg width="24" height="24" fill="none" xmlns="http://www.w3.org/2000/svg"><g clip-path="url(#a)"><path d="M12 22C6.477 22 2 17.523 2 12S6.477 2 12 2s10 4.477 10 10-4.477 10-10 10Zm-1.086-10.432c.24-.84 1.075-1.541 1.99-1.648.187.694.388 1.373.545 2.063.053.23.037.495-.018.727-.213.892-1.248 1.242-1.978.685-.53-.405-.742-1.12-.539-1.827Zm3.817-.197c-.125-.465-.256-.927-.393-1.42.5.13.908.36 1.255.698 1.257 1.221 1.385 3.3.294 4.731-1.135 1.49-3.155 2.134-5.028 1.605-2.302-.65-3.808-2.952-3.441-5.316.274-1.768 1.27-3.004 2.9-3.733.407-.182.58-.56.42-.93-.157-.364-.54-.504-.944-.343-2.721 1.089-4.32 4.134-3.67 6.987.713 3.118 3.495 5.163 6.675 4.859 1.732-.165 3.164-.948 4.216-2.347 1.506-2.002 1.297-4.783-.463-6.499-.666-.65-1.471-1.018-2.39-1.153-.083-.013-.217-.052-.232-.106-.087-.313-.18-.632-.206-.954-.029-.357.29-.64.65-.645.253-.003.434.13.603.3.303.3.704.322.988.062.29-.264.296-.678.018-1.008-.566-.672-1.586-.891-2.43-.523-.847.37-1.321 1.187-1.2 2.093.038.28.11.557.167.842l-.26.072a3.863 3.863 0 0 0-2.098 1.414c-.921 1.22-.936 2.828-.041 3.947 1.274 1.594 3.747 1.284 4.523-.568.284-.676.275-1.368.087-2.065Z" /></g><defs><clipPath id="a"><path fill="#fff" d="M0 0h24v24H0z"/></clipPath></defs></svg>

<svg xmlns="http://www.w3.org/2000/svg" width="24" height="24" fill="none"><g clip-path="url(#a)"><g><path fill="#121212" d="M12 22C6.477 22 2 17.523 2 12C2 6.477 6.477 2 12 2C17.523 2 22 6.477 22 12C22 17.523 17.523 22 12 22ZM10.914 11.568C11.154 10.728 11.989 10.027 12.904 9.92C13.091 10.614 13.292 11.293 13.449 11.983C13.502 12.213 13.486 12.478 13.431 12.71C13.218 13.602 12.183 13.952 11.453 13.395C10.923 12.99 10.711 12.275 10.914 11.568ZM14.731 11.371C14.606 10.906 14.475 10.444 14.338 9.951C14.838 10.081 15.246 10.311 15.593 10.649C16.85 11.87 16.978 13.949 15.887 15.38C14.752 16.87 12.732 17.514 10.859 16.985C8.557 16.335 7.051 14.033 7.418 11.669C7.692 9.901 8.688 8.665 10.318 7.936C10.725 7.754 10.898 7.376 10.738 7.006C10.581 6.642 10.198 6.502 9.794 6.663C7.073 7.752 5.474 10.797 6.124 13.65C6.837 16.768 9.619 18.813 12.799 18.509C14.531 18.344 15.963 17.561 17.015 16.162C18.521 14.16 18.312 11.379 16.552 9.663C15.886 9.013 15.081 8.645 14.162 8.51C14.079 8.497 13.945 8.458 13.93 8.404C13.843 8.091 13.75 7.772 13.724 7.45C13.695 7.093 14.014 6.81 14.374 6.805C14.627 6.802 14.808 6.935 14.977 7.105C15.28 7.405 15.681 7.427 15.965 7.167C16.255 6.903 16.261 6.489 15.983 6.159C15.417 5.487 14.397 5.268 13.553 5.636C12.706 6.006 12.232 6.823 12.353 7.729C12.391 8.009 12.463 8.286 12.52 8.571L12.26 8.643C11.404 8.883 10.699 9.347 10.162 10.057C9.241 11.277 9.226 12.885 10.121 14.004C11.395 15.598 13.868 15.288 14.644 13.436C14.928 12.76 14.919 12.068 14.731 11.371Z"/></g></g><defs><clipPath id="a"><rect width="24" height="24" fill="white"/></clipPath></defs></svg>
